X: 1
T: the Shepherd's Wife
O: Trad
R: jig (and waltz)
Z: John Chambers <jc:trillian.mit.edu>
M: 6/8
L: 1/8
K: G
D |\
"G"G2A B2c | d2g g>fd | "C"e>fg  "G"dcB | "A(m)"A>BG "D7"FED |\
"G"G2A B2c | d2g g>fd | "C"e>fg "D7"agf | "G"g3- g2 :|
|: g/a/ |\
"G"b2b "D"a>gf | "Em"g2g "Bm"f>ed | "C"e>fg  "G"dcB | "A7"A>BG "D7"FED |\
"G"b2b "D"a>gf | "Em"g2g "Bm"f>ed | "C"e>fg "D7"agf | "G"g3- g2 :|
